Sources/FrostedUI/Resources/Icons.xcassets/sparkle32.imageset/sparkle-32.svg

<svg width="32" height="32" viewBox="0 0 32 32" fill="none" xmlns="http://www.w3.org/2000/svg" data-fui-icon="true">
  <g clip-path="url(#clip0_882_1108)">
    <path
      d="M8.5 15C9.11382 15 9.6575 15.3956 9.84668 15.9795L11.3164 20.5225C11.3411 20.5988 11.4012 20.6589 11.4775 20.6836L16.0205 22.1533C16.6044 22.3425 17 22.8862 17 23.5C17 24.1138 16.6044 24.6575 16.0205 24.8467L11.4775 26.3164C11.4012 26.3411 11.3411 26.4012 11.3164 26.4775L9.84668 31.0205C9.6575 31.6044 9.11382 32 8.5 32C7.88618 32 7.3425 31.6044 7.15332 31.0205L5.68359 26.4775C5.65889 26.4012 5.59879 26.3411 5.52246 26.3164L0.979492 24.8467C0.395594 24.6575 0 24.1138 0 23.5C0 22.8862 0.395595 22.3425 0.979492 22.1533L5.52246 20.6836C5.5988 20.6589 5.65889 20.5988 5.68359 20.5225L7.15332 15.9795L7.19238 15.873C7.41007 15.348 7.92424 15 8.5 15ZM7.11035 20.9844C6.93741 21.5186 6.51859 21.9374 5.98438 22.1104L1.68848 23.5L5.98438 24.8896C6.51859 25.0626 6.93741 25.4814 7.11035 26.0156L8.5 30.3105L9.88965 26.0156C10.0626 25.4814 10.4814 25.0626 11.0156 24.8896L15.3105 23.5L11.0156 22.1104C10.4814 21.9374 10.0626 21.5186 9.88965 20.9844L8.5 16.6885L7.11035 20.9844ZM21.5 0C22.2838 4.09191e-07 22.979 0.504716 23.2217 1.25L24.874 6.3252C24.9978 6.70479 25.2952 7.00222 25.6748 7.12598L30.75 8.77832C31.4953 9.02097 32 9.71621 32 10.5C32 11.2838 31.4953 11.979 30.75 12.2217L25.6748 13.874C25.2952 13.9978 24.9978 14.2952 24.874 14.6748L23.2217 19.75C22.979 20.4953 22.2838 21 21.5 21C20.7162 21 20.0219 20.4953 19.7793 19.75L18.126 14.6748C18.0022 14.2952 17.7048 13.9978 17.3252 13.874L12.25 12.2217C11.5047 11.979 11 11.2838 11 10.5C11 9.71621 11.5047 9.02195 12.25 8.7793L17.3252 7.12598C17.7048 7.00222 18.0022 6.70479 18.126 6.3252L19.7783 1.25C20.021 0.504714 20.7162 0 21.5 0ZM21.5 1.5C21.3658 1.5 21.2467 1.5863 21.2051 1.71387L19.5527 6.78906C19.2806 7.625 18.625 8.28057 17.7891 8.55273L12.7139 10.2051C12.5863 10.2467 12.5 10.3658 12.5 10.5C12.5 10.6342 12.5863 10.7533 12.7139 10.7949L17.7891 12.4473C18.625 12.7194 19.2806 13.375 19.5527 14.2109L21.2051 19.2861C21.2467 19.4137 21.3658 19.5 21.5 19.5C21.6342 19.5 21.7533 19.4137 21.7949 19.2861L23.4473 14.2109C23.7194 13.375 24.375 12.7194 25.2109 12.4473L30.2861 10.7949C30.4137 10.7533 30.5 10.6342 30.5 10.5C30.5 10.3658 30.4137 10.2467 30.2861 10.2051L25.2109 8.55273C24.375 8.28057 23.7194 7.625 23.4473 6.78906L21.7949 1.71387C21.7533 1.5863 21.6342 1.5 21.5 1.5Z"
      fill="currentColor"
    />
  </g>
  <defs>
    <clipPath id="clip0_882_1108"><path fill="currentColor" d="M0 0H32V32H0z" /></clipPath>
  </defs>
</svg>

<svg xmlns="http://www.w3.org/2000/svg" width="32" height="32" fill="none" data-fui-icon="true" viewBox="0 0 32 32"><g clip-path="url(#a)"><path fill="currentColor" d="M8.5 15c.614 0 1.158.396 1.347.98l1.47 4.543a.25.25 0 0 0 .16.16l4.543 1.47a1.416 1.416 0 0 1 0 2.694l-4.542 1.47a.25.25 0 0 0-.162.16l-1.47 4.543a1.416 1.416 0 0 1-2.693 0l-1.47-4.542a.25.25 0 0 0-.16-.162l-4.544-1.47a1.416 1.416 0 0 1 0-2.693l4.543-1.47a.25.25 0 0 0 .162-.16l1.47-4.543.038-.107A1.42 1.42 0 0 1 8.5 15m-1.39 5.984a1.75 1.75 0 0 1-1.126 1.126L1.688 23.5l4.296 1.39a1.75 1.75 0 0 1 1.126 1.126L8.5 30.31l1.39-4.295a1.75 1.75 0 0 1 1.126-1.126l4.294-1.39-4.294-1.39a1.75 1.75 0 0 1-1.126-1.126L8.5 16.688zM21.5 0c.784 0 1.479.505 1.722 1.25l1.652 5.075c.124.38.421.677.8.801l5.076 1.652a1.811 1.811 0 0 1 0 3.444l-5.075 1.652a1.25 1.25 0 0 0-.801.8l-1.652 5.076a1.811 1.811 0 0 1-3.443 0l-1.653-5.075a1.25 1.25 0 0 0-.8-.801l-5.076-1.652a1.811 1.811 0 0 1 0-3.443l5.075-1.653a1.25 1.25 0 0 0 .801-.8l1.652-5.076A1.81 1.81 0 0 1 21.5 0m0 1.5a.31.31 0 0 0-.295.214l-1.652 5.075a2.75 2.75 0 0 1-1.764 1.764l-5.075 1.652a.31.31 0 0 0 0 .59l5.075 1.652a2.75 2.75 0 0 1 1.764 1.764l1.652 5.075a.31.31 0 0 0 .59 0l1.652-5.075a2.75 2.75 0 0 1 1.764-1.764l5.075-1.652a.31.31 0 0 0 0-.59l-5.075-1.652a2.75 2.75 0 0 1-1.764-1.764l-1.652-5.075A.31.31 0 0 0 21.5 1.5"/></g><defs><clipPath id="a"><path fill="currentColor" d="M0 0h32v32H0z"/></clipPath></defs></svg>
